X:1
T:Title
%%score { ( 1 4 ) | ( 2 3 ) }
L:1/8
Q:1/4=100
M:4/4
K:D
V:1 treble nm="Grand Piano"
V:4 treble 
V:2 bass 
V:3 bass 
V:1
 F2 =F^F G2 FA | [CA]2 [CE][EG] [EG]2 [DF]2 | [FA]2 [=F^G][^FA] [=GB]2 [Gc][Fd] | c2 BB [CA]4 | %4
w: William~J.~Kirkpatrick * * * * *||||
 F2 =F^F G2 FA | [CA]2 [CE][EG] [EG]2 F2 | B2 cd [Fd]2 [FA][DF] | [CA]2 [CG][CE] D4 | %8
w: ||||
 [CE]2 EF [EG]>[DF] [CE]2 | [DF]2 FG [A,FA]>[A,EG] F2 | E2 EE [EA]2 [CA][Ec] | B2 z2 z4 | %12
w: ||||
 [EG]2 FE [A,DF]>[A,EG] [DFA]2 | [DGB]2 [DAc][DGB] [DGB]>[DFA] [DFA]2 | %14
w: ||
 [DFd]2 [=CDF][CDF] [B,DG] [DB]2 [DB] | [DA]2 [CF][CE] D4 |] %16
w: ||
V:2
 [D,A,D]2 [D,^G,D][D,A,D] [D,B,D]2 [D,A,D][D,F,D] | [A,,E,]2 [A,,A,][A,,A,] [D,A,]2 [D,A,]2 | %2
 [D,D]2 [D,D][D,D] [D,D]2 [D,B,][D,A,] | [E,A,E]2 [E,^G,D][E,G,D] [A,,A,]4 | %4
 [D,A,D]2 [D,^G,D][D,A,D] [D,B,D]2 [D,A,D][D,F,D] | [A,,E,]2 [A,,A,][A,,A,] [D,A,]2 [D,A,D]2 | %6
 [G,B,D]2 [G,^A,G][G,A,G][K:bass] [D,=A,]2 [D,D][D,A,] | [A,,A,]2 [A,,E,][A,,G,] [D,F,]4 | %8
 z2 CD [A,,A,]>[A,,A,] [A,,A,]2 | z2 DE D,>D, [D,A,D]2 | %10
 [E,A,C]2 [E,A,C][E,A,C] [C,A,]2 [A,,E,][A,,A,] | .[F,D]2 z2 z4 | z2 DC D,>D, D,2 | %13
 G,2 G,G, D,>D, D,2 | B,,2 A,,A,, G,, [G,,G,]2 [G,,G,] | [A,,F,]2 [A,,A,][A,,G,] [D,F,]4 |] %16
V:3
 x8 | x8 | x8 | x8 | x8 | x8 | x4[K:bass] x4 | x8 | [A,,A,]4 z4 | [D,A,]4 z4 | x8 | %11
 D,-[D,D][E,CE][E,B,D] [A,,A,]4 | [A,,A,]4 z4 | x8 | x8 | x8 |] %16
V:4
 x8 | x8 | x8 | x8 | x8 | x8 | x8 | x8 | x8 | x8 | x8 | z FA^G [CA]4 | x8 | x8 | x8 | x8 |] %16

